svg/Outline/reload.svg

<svg viewBox="0 0 24 24" xmlns="http://www.w3.org/2000/svg" width="24" height="24"><path d="M11.69 1.4a10.6 10.6 0 0 1 7.29 2.9l.38.38.01.02.02.01.02.04 1.9-1.89a1 1 0 0 1 1.7.7V8.5a1 1 0 0 1-1 1h-4.94a1 1 0 0 1-.7-1.7l1.77-1.78-.1-.11A8.8 8.8 0 0 0 11.7 3.2a8.8 8.8 0 0 0 0 17.6h.34A8.8 8.8 0 0 0 20 14.93l.04-.08a.9.9 0 0 1 1.66.69l-.15.38a10.6 10.6 0 0 1-9.44 6.68h-.41a10.6 10.6 0 0 1 0-21.2"/></svg>

<svg viewBox="0 0 24 24" xmlns="http://www.w3.org/2000/svg" width="24" height="24"><path d="M11.69 1.4A10.6 10.6 0 0 1 18.98 4.3L19.41 4.75L21.31 2.86A1 1 0 0 1 23.01 3.56L23.01 8.5A1 1 0 0 1 22.01 9.5L17.07 9.5A1 1 0 0 1 16.37 7.8L18.14 6.02L18.04 5.91A8.8 8.8 0 0 0 11.7 3.2A8.8 8.8 0 0 0 11.7 20.8L12.04 20.8A8.8 8.8 0 0 0 20 14.93L20.04 14.85A.9 .9 0 0 1 21.7 15.54L21.55 15.92A10.6 10.6 0 0 1 12.11 22.6L11.7 22.6A10.6 10.6 0 0 1 11.7 1.4"/></svg>
